X:156
T:Gold Ring, The
C:Joe Buchanan's Scottish Tome - Page 259.2
I:259 2
Z:Carl Allison
R:Jig
L:1/8
M:6/8
K:G
d | cAG GFG | cAG G2 d | cAG GFG | cAG F2 d | cAG GFG | cAG A2 G | FGA fed | cAG G2 :| 
d | cAd cAd | cAG G2 d| cAd cAd | cAG F2 d| cAd cAd | cAG A2 G | FGA fed | cAG G2 :| 
d/e/f/ | gag gdc | BGG G2 d/e/ | =fgf fc_B | A=FF F2 d | gag gdc | BGG G2 d| =fgf fed | cAG G2 :| 
d/e/f/ | gdd fdd | gdd fdd | gdd fdd | cAG G2d/e/ |  gdd fdd | gdd fdd | fga gfd | cAG 2:| 
D | Gdd Gdd | cAG G2 A | B2 G A2 G | cAG F2 A | B2 G A2 G | B2 G A2 G | FGA fed | cAG G2 :| 
G/A/ | BGB AFA | DED FED | Add fed | cAG FGA | BGB AFA | DED FED | Add fed | cAG G2 :| 
G/F/ | BAB DED | AFA DED | Add fed | cAG FGA | BAB DED | AFA DED | Add fed | cAG G2 :| 

